X: 532
P: Longways for &c.
M: 2/2
L: 1/8
K: D
V: 1
d2d2 c2B2 | A4 (Bc)d2 | (cd)e2 A2c2 | d4 :|\
|: f2A2 |\
|: fg |\
a2gf efge | f2ef d2fg | a2gf efge | Tf6 :|
|: ef |\
g2g2 g2g2 | Tg2f2 f2f2 | Tf2e2 e2f2 | e2dc B2e2 |\
c2B2 A2!segno!dc | B2ed c2fe | d2gf e2ag | fede A2c2 | d6 !segno! :|
V: 2 clef=bass middle=d
d'2c'2 | b2b2 a2g2 | f2d2 g4 | a2g2 a2A2 d2D2 :|\
|: d'4 | c'4 b4 | c'4 d'4 | c'4 b4 | a4 A4 | d4 e4 |
|: d'2 | f2g2 a2A2 | d6 d'2 | f2g2 a2A2 | d6 :|\
|: A2 |
a6 !segno!f2 | g4 a4 | b4 c'4 | d'2g2 a2A2 | d6 !segno!:|

